icons/desktop/16/qr-code-16.svg

<svg width="16" height="16" viewBox="0 0 16 16" fill="none" xmlns="http://www.w3.org/2000/svg">
<path d="M15 12.0068C15 13.4048 13.9619 14.5793 12.5859 14.7373C11.896 14.8173 11.199 14.873 10.5 14.917V13.4121C11.141 13.3701 11.7801 13.3201 12.4141 13.2461C13.033 13.1751 13.5 12.6418 13.5 12.0059V10.501H15V12.0068Z" fill="black"/>
<path d="M2.5 12.0029C2.5 12.6409 2.97637 13.177 3.60938 13.249C4.23625 13.321 4.86813 13.3701 5.5 13.4111V14.916C4.81017 14.873 4.12131 14.8172 3.43848 14.7393C2.04948 14.5803 1 13.4039 1 12.0029V10.5H2.5V12.0029Z" fill="black"/>
<path d="M5.51465 11.75C5.51465 11.888 5.40265 12 5.26465 12H4.16504C4.02704 12 3.91504 11.888 3.91504 11.75V10.6504C3.91504 10.5124 4.02704 10.4004 4.16504 10.4004H5.51465V11.75Z" fill="black"/>
<path d="M8.71484 11.75C8.71484 11.888 8.60284 12 8.46484 12H7.36523C7.22723 12 7.11523 11.888 7.11523 11.75V10.4004H8.71484V11.75Z" fill="black"/>
<path d="M11.665 10.4004C11.803 10.4004 11.915 10.5124 11.915 10.6504V11.75C11.915 11.888 11.803 12 11.665 12H10.5654C10.4274 12 10.3154 11.888 10.3154 11.75V10.4004H11.665Z" fill="black"/>
<path d="M6.86523 8.7998C7.00307 8.79992 7.11514 8.91196 7.11523 9.0498V10.4004H5.51465V9.0498C5.51475 8.91201 5.62688 8.8 5.76465 8.7998H6.86523Z" fill="black"/>
<path d="M10.3154 10.4004H8.71484V9.0498C8.71494 8.91194 8.82697 8.79989 8.96484 8.7998H10.3154V10.4004Z" fill="black"/>
<path d="M11.665 7.2002C11.803 7.20021 11.915 7.31221 11.915 7.4502V8.5498C11.915 8.68779 11.803 8.79979 11.665 8.7998H10.3154V7.2002H11.665Z" fill="black"/>
<path d="M6.5 4C6.91421 4 7.25 4.33579 7.25 4.75V6.5C7.25 6.91421 6.91421 7.25 6.5 7.25H4.75C4.33579 7.25 4 6.91421 4 6.5V4.75C4 4.33579 4.33579 4 4.75 4H6.5Z" fill="black"/>
<path d="M10.3154 7.2002H8.96484C8.82699 7.20011 8.71496 7.08804 8.71484 6.9502V5.84961C8.71504 5.71183 8.82704 5.59969 8.96484 5.59961H10.3154V7.2002Z" fill="black"/>
<path d="M11.665 4C11.803 4.00002 11.915 4.11201 11.915 4.25V5.34961C11.915 5.4876 11.803 5.59959 11.665 5.59961H10.3154V4.25C10.3154 4.112 10.4274 4 10.5654 4H11.665Z" fill="black"/>
<path d="M5.5 2.58789C4.859 2.62989 4.21894 2.68091 3.58594 2.75391C2.96696 2.82493 2.5 3.35816 2.5 3.99414V5.5L1 5.49902V3.99316C1 2.59516 2.03806 1.4207 3.41406 1.2627C4.10503 1.1827 4.80203 1.12601 5.5 1.08301V2.58789Z" fill="black"/>
<path d="M10.5 1.08496C11.1898 1.12795 11.8787 1.18277 12.5615 1.26074C13.9505 1.41974 15 2.59607 15 3.99707V5.5H13.5V3.99707C13.5 3.35907 13.0236 2.82298 12.3906 2.75098C11.7637 2.679 11.1319 2.62986 10.5 2.58887V1.08496Z" fill="black"/>
</svg>

<!-- This Source Code Form is subject to the terms of the Mozilla Public
   - License, v. 2.0. If a copy of the MPL was not distributed with this
   - file, You can obtain one at http://mozilla.org/MPL/2.0/. -->
<svg xmlns="http://www.w3.org/2000/svg" width="16" height="16" fill="context-fill" fill-opacity="context-fill-opacity" viewBox="0 0 16 16">
    <path d="M15 12.007a2.74 2.74 0 0 1-2.414 2.73c-.69.08-1.387.136-2.086.18v-1.505a38 38 0 0 0 1.914-.166 1.24 1.24 0 0 0 1.086-1.24V10.5H15zm-12.5-.004c0 .638.476 1.174 1.11 1.246.626.072 1.258.121 1.89.162v1.505a40 40 0 0 1-2.062-.177A2.753 2.753 0 0 1 1 12.003V10.5h1.5z" />
    <path d="M5.515 11.75a.25.25 0 0 1-.25.25h-1.1a.25.25 0 0 1-.25-.25v-1.1a.25.25 0 0 1 .25-.25h1.35zm3.2 0a.25.25 0 0 1-.25.25h-1.1a.25.25 0 0 1-.25-.25V10.4h1.6zm2.95-1.35a.25.25 0 0 1 .25.25v1.1a.25.25 0 0 1-.25.25h-1.1a.25.25 0 0 1-.25-.25V10.4zm-4.8-1.6a.25.25 0 0 1 .25.25v1.35h-1.6V9.05a.25.25 0 0 1 .25-.25zm3.45 1.6h-1.6V9.05a.25.25 0 0 1 .25-.25h1.35zm1.35-3.2a.25.25 0 0 1 .25.25v1.1a.25.25 0 0 1-.25.25h-1.35V7.2zM6.5 4a.75.75 0 0 1 .75.75V6.5a.75.75 0 0 1-.75.75H4.75A.75.75 0 0 1 4 6.5V4.75A.75.75 0 0 1 4.75 4zm3.815 3.2h-1.35a.25.25 0 0 1-.25-.25v-1.1a.25.25 0 0 1 .25-.25h1.35zm1.35-3.2a.25.25 0 0 1 .25.25v1.1a.25.25 0 0 1-.25.25h-1.35V4.25a.25.25 0 0 1 .25-.25zM5.5 2.588a39 39 0 0 0-1.914.166A1.24 1.24 0 0 0 2.5 3.994V5.5L1 5.499V3.993a2.74 2.74 0 0 1 2.414-2.73 39 39 0 0 1 2.086-.18zm5-1.503c.69.043 1.379.098 2.062.176A2.753 2.753 0 0 1 15 3.997V5.5h-1.5V3.997c0-.638-.476-1.174-1.11-1.246a38 38 0 0 0-1.89-.162z" />
</svg>
